www/build/app/css/images/info-orange.svg

<?xml version="1.0" encoding="UTF-8" standalone="no"?>
<svg width="11px" height="10px" viewBox="0 0 11 10" version="1.1" xmlns="http://www.w3.org/2000/svg" xmlns:xlink="http://www.w3.org/1999/xlink">
    <!-- Generator: Sketch 41.2 (35397) - http://www.bohemiancoding.com/sketch -->
    <title>Group</title>
    <desc>Created with Sketch.</desc>
    <defs></defs>
    <g id="Page-1" stroke="none" stroke-width="1" fill="none" fill-rule="evenodd">
        <g id="Group">
            <circle id="Oval" fill="#E98300" cx="5.5" cy="5" r="5"></circle>
            <path d="M5.512,8.67 C5.19999844,8.67 4.93200112,8.67599994 4.708,8.688 C4.48399888,8.70000006 4.26800104,8.71399992 4.06,8.73 C4.04399992,8.6499996 4.036,8.57400036 4.036,8.502 C4.036,8.44599972 4.04999986,8.4080001 4.078,8.388 C4.10600014,8.3679999 4.13599984,8.35400004 4.168,8.346 C4.42400128,8.29799976 4.59999952,8.24600028 4.696,8.19 C4.79200048,8.13399972 4.84,8.0460006 4.84,7.926 L4.84,4.758 C4.84,4.5179988 4.8000004,4.33400064 4.72,4.206 C4.6399996,4.07799936 4.45200148,4.00200012 4.156,3.978 C4.05199948,3.96199992 4,3.89800056 4,3.786 L4,3.696 C4,3.65999982 4.00799992,3.62600016 4.024,3.594 C4.07200024,3.594 4.14199954,3.59200002 4.234,3.588 C4.32600046,3.58399998 4.42399948,3.58000002 4.528,3.576 C4.63200052,3.57199998 4.73599948,3.56600004 4.84,3.558 C4.94400052,3.54999996 5.03999956,3.54200004 5.128,3.534 C5.328001,3.50999988 5.51999908,3.4780002 5.704,3.438 C5.88800092,3.3979998 6.01199968,3.378 6.076,3.378 C6.20400064,3.378 6.268,3.4379994 6.268,3.558 C6.268,3.64600044 6.25600012,3.76199928 6.232,3.906 C6.20799988,4.05000072 6.196,4.24999872 6.196,4.506 L6.196,7.926 C6.196,8.0460006 6.24799948,8.13399972 6.352,8.19 C6.45600052,8.24600028 6.6279988,8.29799976 6.868,8.346 C6.95600044,8.36200008 7,8.41399956 7,8.502 L7,8.622 C7,8.6620002 6.99200008,8.69799984 6.976,8.73 C6.775999,8.71399992 6.56000116,8.70000006 6.328,8.688 C6.09599884,8.67599994 5.82400156,8.67 5.512,8.67 Z M4.636,1.626 C4.636,1.36999872 4.71799918,1.16000082 4.882,0.996 C5.04600082,0.83199918 5.25199876,0.75 5.5,0.75 C5.75600128,0.75 5.9639992,0.83199918 6.124,0.996 C6.2840008,1.16000082 6.364,1.36999872 6.364,1.626 C6.364,1.88200128 6.2840008,2.09199918 6.124,2.256 C5.9639992,2.42000082 5.75600128,2.502 5.5,2.502 C5.25199876,2.502 5.04600082,2.42000082 4.882,2.256 C4.71799918,2.09199918 4.636,1.88200128 4.636,1.626 Z" id="i-copy-3" fill="#FFFFFF"></path>
        </g>
    </g>
</svg>

<svg width="11" height="10" viewBox="0 0 11 10" xmlns="http://www.w3.org/2000/svg"><title>Group</title><g fill="none" fill-rule="evenodd"><circle fill="#E98300" cx="5.5" cy="5" r="5"/><path d="M5.512 8.67c-.312 0-.58.006-.804.018-.224.012-.44.026-.648.042a1.164 1.164 0 0 1-.024-.228c0-.056.014-.094.042-.114a.264.264 0 0 1 .09-.042c.256-.048.432-.1.528-.156a.284.284 0 0 0 .144-.264V4.758c0-.24-.04-.424-.12-.552-.08-.128-.268-.204-.564-.228C4.052 3.962 4 3.898 4 3.786v-.09c0-.036.008-.07.024-.102.048 0 .118-.002.21-.006l.294-.012c.104-.004.208-.01.312-.018l.288-.024c.2-.024.392-.056.576-.096.184-.04.308-.06.372-.06.128 0 .192.06.192.18 0 .088-.012.204-.036.348a3.859 3.859 0 0 0-.036.6v3.42c0 .12.052.208.156.264.104.056.276.108.516.156.088.016.132.068.132.156v.12c0 .04-.008.076-.024.108a16.052 16.052 0 0 0-1.464-.06zm-.876-7.044A.838.838 0 0 1 5.5.75c.256 0 .464.082.624.246.16.164.24.374.24.63s-.08.466-.24.63a.833.833 0 0 1-.624.246.838.838 0 0 1-.864-.876z" fill="#FFF"/></g></svg>
